X: 13
T: No_110_Dream_Song.krn
N: Derived from No_110_Dream_Song.krn
%%abc-version 2.0
%%abcx-abcm2ps-target-version 5.9.1 (29 Sep 2008)
%%abc-creator hum2abc beta
%%abcx-conversion-date 2019/03/15 08:36:49
%%humdrum-veritas 2813401938
%%humdrum-veritas-data 2542909885
%%linebreak <none>
%%barnumbers 0
L: 1/8
M: 3/4
K: A clef=bass
[K:clef=bass][M:3/4]CC [I:setbarnb 1]| 
B,2B,B, CC ||  
[M:2/4]A,A, B,B, | 
A,A, A,B, | 
A,A, CC ||  
[M:3/4]B,2B,B, CC ||  
[M:2/4]A,A, F,B, | 
A,2A,B, | 
A,A, F,B, | 
A,2A,B, | 
A,A, F,B, | 
A,2A,B, | 
A,2z2 | 



